!!!OTL: Shange,yichang zhentianxiang
!!!ARE: Asia, China,ÿJiangsu Qidong
!! III, 446
!!!SCT: C1800
!!!YEM: Copyright 1995, estate of Helmut Schaffrath.
**kern
*ICvox
*Ivox
*M2/4
*k[f#c#]
*D:
{8a
8b
8dd
8ee
=1
[2ee
=2
2ee]}
=3
{8ee
16b
16dd
8b
8a
=4
[4a]
16a]
16a
16b
16dd}
=5
{8b
8ee
8ee
16dd
16b
=6
8a
16b
16dd
8.b
16a
=7
2a}
=8
{8a
8b
8dd
[8ee
=9
2ee]
=10
8ee
16b
16dd
[4dd
=11
2dd]}
=12
{8b
8ee
8ee
16dd
16b
=13
8a
16b
16dd
8.b
16a
=14
[2a
=15
4.a]
8r}
==
!!!AGN: Shange
!!!AMT: simple duple
!!!AIN: vox
!!!EED: Helmut Schaffrath
!!!EEV: 1.0
*-
!!!ONB: Tied note syntax fixed by Craig Sapp, 2004/05/03/
